austria/municipalities/70328.svg

<?xml version="1.0" encoding="UTF-8"?>
<!DOCTYPE svg PUBLIC "-//W3C//DTD SVG 1.1//EN" "http://www.w3.org/Graphics/SVG/1.1/DTD/svg11.dtd">
<svg xmlns="http://www.w3.org/2000/svg" version="1.1" width="166px" height="192px" style="shape-rendering:geometricPrecision; text-rendering:geometricPrecision; image-rendering:optimizeQuality; fill-rule:evenodd; clip-rule:evenodd" xmlns:xlink="http://www.w3.org/1999/xlink">
<g><path style="opacity:1" fill="#0e0a09" d="M -0.5,-0.5 C 54.8333,-0.5 110.167,-0.5 165.5,-0.5C 165.5,39.8333 165.5,80.1667 165.5,120.5C 156.716,159.618 132.716,183.285 93.5,191.5C 86.1667,191.5 78.8333,191.5 71.5,191.5C 30.4674,182.802 6.46741,157.802 -0.5,116.5C -0.5,77.5 -0.5,38.5 -0.5,-0.5 Z"/></g>
<g><path style="opacity:1" fill="#391812" d="M 161.5,3.5 C 109.499,3.33334 57.4989,3.50001 5.5,4C 7.70587,6.0367 9.70587,8.20337 11.5,10.5C 8.57265,9.24269 6.23931,7.24269 4.5,4.5C 30.3247,3.16686 56.4914,2.50019 83,2.5C 109.335,2.50002 135.502,2.83336 161.5,3.5 Z"/></g>
<g><path style="opacity:1" fill="#d63023" d="M 161.5,3.5 C 161.667,41.8348 161.5,80.1681 161,118.5C 160.222,125.39 158.555,132.057 156,138.5C 155.29,139.973 154.124,140.64 152.5,140.5C 151.5,140.167 150.833,139.5 150.5,138.5C 147.437,134.434 143.771,131.101 139.5,128.5C 138.5,128.167 137.833,127.5 137.5,126.5C 134.769,122.766 131.436,119.766 127.5,117.5C 126.5,117.167 125.833,116.5 125.5,115.5C 122.437,111.434 118.771,108.101 114.5,105.5C 113.5,105.167 112.833,104.5 112.5,103.5C 109.769,99.7657 106.436,96.7657 102.5,94.5C 101.5,94.1667 100.833,93.5 100.5,92.5C 97.4372,88.4342 93.7706,85.1009 89.5,82.5C 88.5,82.1667 87.8333,81.5 87.5,80.5C 84.4372,76.4342 80.7706,73.1009 76.5,70.5C 75.5,70.1667 74.8333,69.5 74.5,68.5C 71.7689,64.7657 68.4356,61.7657 64.5,59.5C 63.5,59.1667 62.8333,58.5 62.5,57.5C 59.4372,53.4342 55.7706,50.1009 51.5,47.5C 50.5,47.1667 49.8333,46.5 49.5,45.5C 46.4372,41.4342 42.7706,38.1009 38.5,35.5C 37.5,35.1667 36.8333,34.5 36.5,33.5C 33.7689,29.7657 30.4356,26.7657 26.5,24.5C 25.5,24.1667 24.8333,23.5 24.5,22.5C 21.4372,18.4342 17.7706,15.1009 13.5,12.5C 12.5,12.1667 11.8333,11.5 11.5,10.5C 9.70587,8.20337 7.70587,6.0367 5.5,4C 57.4989,3.50001 109.499,3.33334 161.5,3.5 Z"/></g>
<g><path style="opacity:1" fill="#fdfdfd" d="M 4.5,4.5 C 6.23931,7.24269 8.57265,9.24269 11.5,10.5C 11.8333,11.5 12.5,12.1667 13.5,12.5C 16.5628,16.5658 20.2294,19.8991 24.5,22.5C 24.8333,23.5 25.5,24.1667 26.5,24.5C 29.2311,28.2343 32.5644,31.2343 36.5,33.5C 36.8333,34.5 37.5,35.1667 38.5,35.5C 41.5628,39.5658 45.2294,42.8991 49.5,45.5C 49.8333,46.5 50.5,47.1667 51.5,47.5C 54.5628,51.5658 58.2294,54.8991 62.5,57.5C 62.8333,58.5 63.5,59.1667 64.5,59.5C 67.2311,63.2343 70.5644,66.2343 74.5,68.5C 74.8333,69.5 75.5,70.1667 76.5,70.5C 79.5628,74.5658 83.2294,77.8991 87.5,80.5C 87.8333,81.5 88.5,82.1667 89.5,82.5C 92.5628,86.5658 96.2294,89.8991 100.5,92.5C 100.833,93.5 101.5,94.1667 102.5,94.5C 105.231,98.2343 108.564,101.234 112.5,103.5C 112.833,104.5 113.5,105.167 114.5,105.5C 117.563,109.566 121.229,112.899 125.5,115.5C 125.833,116.5 126.5,117.167 127.5,117.5C 130.231,121.234 133.564,124.234 137.5,126.5C 137.833,127.5 138.5,128.167 139.5,128.5C 142.563,132.566 146.229,135.899 150.5,138.5C 150.833,139.5 151.5,140.167 152.5,140.5C 153.265,144.05 152.431,147.383 150,150.5C 130.825,178.165 104.325,190.331 70.5,187C 42.4503,181.728 22.2837,166.228 10,140.5C 7.92661,134.947 6.25994,129.28 5,123.5C 3.88144,102.361 3.38144,81.1946 3.5,60C 3.50005,41.3303 3.83338,22.8303 4.5,4.5 Z"/></g>
<g><path style="opacity:1" fill="#32231f" d="M 13.5,12.5 C 17.7706,15.1009 21.4372,18.4342 24.5,22.5C 20.2294,19.8991 16.5628,16.5658 13.5,12.5 Z"/></g>
<g><path style="opacity:1" fill="#070201" d="M 73.5,24.5 C 79.6648,27.655 79.9981,31.3217 74.5,35.5C 76.483,37.9837 78.6496,40.3171 81,42.5C 83,40.5 85,38.5 87,36.5C 86.5808,34.4971 85.7474,32.4971 84.5,30.5C 85.8333,28.5 87.5,26.8333 89.5,25.5C 96.6476,28.1481 101.648,32.9815 104.5,40C 103.301,42.8851 101.301,44.5518 98.5,45C 96.9825,43.3149 95.3159,41.8149 93.5,40.5C 91.0163,42.483 88.6829,44.6496 86.5,47C 88.7047,49.5402 91.2047,51.7068 94,53.5C 93.8729,56.1411 92.3729,57.8078 89.5,58.5C 86.2302,56.7333 83.3968,54.4 81,51.5C 78.9835,53.684 76.8169,55.684 74.5,57.5C 72.5,56.1667 70.8333,54.5 69.5,52.5C 71.6239,50.8793 73.6239,49.046 75.5,47C 73.3171,44.6496 70.9837,42.483 68.5,40.5C 66.8513,41.6477 65.3513,42.981 64,44.5C 58.2897,42.3813 57.2897,39.0479 61,34.5C 64.5981,30.3058 68.7648,26.9724 73.5,24.5 Z"/></g>
<g><path style="opacity:1" fill="#31221e" d="M 26.5,24.5 C 30.4356,26.7657 33.7689,29.7657 36.5,33.5C 32.5644,31.2343 29.2311,28.2343 26.5,24.5 Z"/></g>
<g><path style="opacity:1" fill="#322420" d="M 38.5,35.5 C 42.7706,38.1009 46.4372,41.4342 49.5,45.5C 45.2294,42.8991 41.5628,39.5658 38.5,35.5 Z"/></g>
<g><path style="opacity:1" fill="#2f231f" d="M 51.5,47.5 C 55.7706,50.1009 59.4372,53.4342 62.5,57.5C 58.2294,54.8991 54.5628,51.5658 51.5,47.5 Z"/></g>
<g><path style="opacity:1" fill="#2f221f" d="M 64.5,59.5 C 68.4356,61.7657 71.7689,64.7657 74.5,68.5C 70.5644,66.2343 67.2311,63.2343 64.5,59.5 Z"/></g>
<g><path style="opacity:1" fill="#332420" d="M 76.5,70.5 C 80.7706,73.1009 84.4372,76.4342 87.5,80.5C 83.2294,77.8991 79.5628,74.5658 76.5,70.5 Z"/></g>
<g><path style="opacity:1" fill="#312420" d="M 89.5,82.5 C 93.7706,85.1009 97.4372,88.4342 100.5,92.5C 96.2294,89.8991 92.5628,86.5658 89.5,82.5 Z"/></g>
<g><path style="opacity:1" fill="#0b0b0a" d="M 99.5,155.5 C 99.5,154.833 99.8333,154.5 100.5,154.5C 100.804,155.15 101.137,155.817 101.5,156.5C 107.472,157.664 113.472,157.83 119.5,157C 118.956,156.283 118.289,155.783 117.5,155.5C 115.257,154.495 114.924,152.995 116.5,151C 113.647,149.249 112.98,146.916 114.5,144C 110.894,142.924 109.894,140.757 111.5,137.5C 110.311,136.571 108.978,136.238 107.5,136.5C 99.9196,135.534 92.253,135.201 84.5,135.5C 84.5,139.167 84.5,142.833 84.5,146.5C 84.4772,148.6 85.1439,150.433 86.5,152C 83.9465,155.606 81.7799,159.439 80,163.5C 78.8546,159.206 76.6879,155.539 73.5,152.5C 74.5,151.167 75.5,149.833 76.5,148.5C 75.5672,144.571 75.2338,140.571 75.5,136.5C 68.656,135.181 61.656,135.181 54.5,136.5C 54.6236,137.107 54.9569,137.44 55.5,137.5C 57.676,138.713 58.0093,140.38 56.5,142.5C 59.2299,144.282 59.8966,146.615 58.5,149.5C 59.7515,150.631 60.7515,151.964 61.5,153.5C 61.3918,154.442 61.0585,155.275 60.5,156C 62.1341,156.494 63.8008,156.66 65.5,156.5C 61.8857,169.983 53.8857,173.483 41.5,167C 38.3475,164.195 36.6808,160.695 36.5,156.5C 39.8884,157.165 40.8884,156.165 39.5,153.5C 39.9252,151.62 40.9252,150.12 42.5,149C 41.0506,146.711 41.5506,144.877 44,143.5C 43.84,140.491 45.0067,138.325 47.5,137C 40.7763,134.559 39.1096,130.226 42.5,124C 46.8444,122.524 49.1778,124.024 49.5,128.5C 58.5,128.5 67.5,128.5 76.5,128.5C 76.3162,121.142 76.6495,113.809 77.5,106.5C 75.3501,102.821 73.3501,98.988 71.5,95C 73.282,88.2714 77.6154,85.9381 84.5,88C 89.7838,92.8417 89.7838,97.675 84.5,102.5C 83.5184,111.156 83.5184,119.823 84.5,128.5C 93.1922,128.831 101.859,128.498 110.5,127.5C 112.625,123.259 115.458,122.592 119,125.5C 120.857,131.048 119.024,134.714 113.5,136.5C 116.379,137.803 117.045,139.803 115.5,142.5C 118.418,144.008 119.084,146.175 117.5,149C 121.106,150.076 122.106,152.243 120.5,155.5C 121.689,156.429 123.022,156.762 124.5,156.5C 121.033,168.9 113.366,172.734 101.5,168C 97.7731,165.045 95.7731,161.212 95.5,156.5C 97.099,156.768 98.4324,156.434 99.5,155.5 Z"/></g>
<g><path style="opacity:1" fill="#f3f2f2" d="M 77.5,90.5 C 84.602,90.0733 86.602,92.9066 83.5,99C 75.749,100.091 73.749,97.258 77.5,90.5 Z"/></g>
<g><path style="opacity:1" fill="#2e221e" d="M 102.5,94.5 C 106.436,96.7657 109.769,99.7657 112.5,103.5C 108.564,101.234 105.231,98.2343 102.5,94.5 Z"/></g>
<g><path style="opacity:1" fill="#302320" d="M 114.5,105.5 C 118.771,108.101 122.437,111.434 125.5,115.5C 121.229,112.899 117.563,109.566 114.5,105.5 Z"/></g>
<g><path style="opacity:1" fill="#fdfdfd" d="M -0.5,116.5 C 6.46741,157.802 30.4674,182.802 71.5,191.5C 47.5,191.5 23.5,191.5 -0.5,191.5C -0.5,166.5 -0.5,141.5 -0.5,116.5 Z"/></g>
<g><path style="opacity:1" fill="#2f221e" d="M 127.5,117.5 C 131.436,119.766 134.769,122.766 137.5,126.5C 133.564,124.234 130.231,121.234 127.5,117.5 Z"/></g>
<g><path style="opacity:1" fill="#fdfdfd" d="M 165.5,120.5 C 165.5,144.167 165.5,167.833 165.5,191.5C 141.5,191.5 117.5,191.5 93.5,191.5C 132.716,183.285 156.716,159.618 165.5,120.5 Z"/></g>
<g><path style="opacity:1" fill="#332420" d="M 139.5,128.5 C 143.771,131.101 147.437,134.434 150.5,138.5C 146.229,135.899 142.563,132.566 139.5,128.5 Z"/></g>
<g><path style="opacity:1" fill="#464240" d="M 75.5,136.5 C 68.6457,136.176 61.979,136.509 55.5,137.5C 54.9569,137.44 54.6236,137.107 54.5,136.5C 61.656,135.181 68.656,135.181 75.5,136.5 Z"/></g>
<g><path style="opacity:1" fill="#f7f7f6" d="M 49.5,136.5 C 53.1569,136.12 54.1569,137.453 52.5,140.5C 53.0096,142.088 54.0096,143.255 55.5,144C 53.9799,146.916 54.6466,149.249 57.5,151C 56.3507,152.73 56.3507,154.396 57.5,156C 52.5,156.667 47.5,156.667 42.5,156C 44.7871,154.573 45.1205,152.739 43.5,150.5C 46.4886,149.249 47.4886,147.249 46.5,144.5C 48.8649,142.412 49.8649,139.746 49.5,136.5 Z"/></g>
<g><path style="opacity:1" fill="#fbfbfb" d="M 107.5,136.5 C 108.978,136.238 110.311,136.571 111.5,137.5C 109.894,140.757 110.894,142.924 114.5,144C 112.98,146.916 113.647,149.249 116.5,151C 114.924,152.995 115.257,154.495 117.5,155.5C 112.985,156.812 108.318,156.812 103.5,155.5C 104.695,154.033 104.695,152.533 103.5,151C 106.401,149.299 107.067,146.965 105.5,144C 108.515,142.123 109.181,139.623 107.5,136.5 Z"/></g>
<g><path style="opacity:1" fill="#d0cecd" d="M 46.5,138.5 C 48.7602,139.238 48.9269,140.238 47,141.5C 46.5172,140.552 46.3505,139.552 46.5,138.5 Z"/></g>
<g><path style="opacity:1" fill="#cbc9c7" d="M 53.5,140.5 C 54.2506,139.427 55.2506,139.26 56.5,140C 55.6477,141.728 54.6477,141.895 53.5,140.5 Z"/></g>
<g><path style="opacity:1" fill="#2a2827" d="M 107.5,136.5 C 109.181,139.623 108.515,142.123 105.5,144C 107.067,146.965 106.401,149.299 103.5,151C 104.695,152.533 104.695,154.033 103.5,155.5C 108.318,156.812 112.985,156.812 117.5,155.5C 118.289,155.783 118.956,156.283 119.5,157C 113.472,157.83 107.472,157.664 101.5,156.5C 101.137,155.817 100.804,155.15 100.5,154.5C 99.8333,154.5 99.5,154.833 99.5,155.5C 98.4265,154.749 98.2599,153.749 99,152.5C 101.661,151.258 102.161,149.424 100.5,147C 101.217,145.469 102.217,144.136 103.5,143C 101.78,140.161 102.446,138.161 105.5,137C 98.8417,136.5 92.175,136.334 85.5,136.5C 85.8128,140.042 85.4794,143.375 84.5,146.5C 84.5,142.833 84.5,139.167 84.5,135.5C 92.253,135.201 99.9196,135.534 107.5,136.5 Z"/></g>
<g><path style="opacity:1" fill="#cac8c6" d="M 104.5,139.5 C 106.337,139.639 106.67,140.306 105.5,141.5C 104.702,141.043 104.369,140.376 104.5,139.5 Z"/></g>
<g><path style="opacity:1" fill="#f4f3f3" d="M 43.5,145.5 C 45.337,145.639 45.6704,146.306 44.5,147.5C 43.7025,147.043 43.3691,146.376 43.5,145.5 Z"/></g>
<g><path style="opacity:1" fill="#e2e1e0" d="M 56.5,145.5 C 57.2891,145.783 57.9558,146.283 58.5,147C 57.184,147.528 56.5173,147.028 56.5,145.5 Z"/></g>
<g><path style="opacity:1" fill="#9a9794" d="M 115.5,145.5 C 117.337,145.639 117.67,146.306 116.5,147.5C 115.702,147.043 115.369,146.376 115.5,145.5 Z"/></g>
<g><path style="opacity:1" fill="#eeedec" d="M 102.5,145.5 C 104.337,145.639 104.67,146.306 103.5,147.5C 102.702,147.043 102.369,146.376 102.5,145.5 Z"/></g>
<g><path style="opacity:1" fill="#f7f6f6" d="M 58.5,152.5 C 59.2891,152.783 59.9558,153.283 60.5,154C 59.184,154.528 58.5173,154.028 58.5,152.5 Z"/></g>
<g><path style="opacity:1" fill="#edecec" d="M 117.5,152.5 C 119.337,152.639 119.67,153.306 118.5,154.5C 117.702,154.043 117.369,153.376 117.5,152.5 Z"/></g>
<g><path style="opacity:1" fill="#898684" d="M 40.5,153.5 C 41.3864,152.224 42.3864,152.224 43.5,153.5C 42.5754,154.562 41.5754,154.562 40.5,153.5 Z"/></g>
<g><path style="opacity:1" fill="#e7e5e5" d="M 100.5,154.5 C 100.639,152.663 101.306,152.33 102.5,153.5C 102.043,154.298 101.376,154.631 100.5,154.5 Z"/></g>
</svg>

<svg xmlns="http://www.w3.org/2000/svg" width="166" height="192" style="shape-rendering:geometricPrecision;text-rendering:geometricPrecision;image-rendering:optimizeQuality;fill-rule:evenodd;clip-rule:evenodd"><path style="opacity:1" fill="#0e0a09" d="M-.5-.5h166v121c-8.784 39.118-32.784 62.785-72 71h-22c-41.033-8.698-65.033-33.698-72-75V-.5z"/><path style="opacity:1" fill="#391812" d="M161.5 3.5c-52.001-.167-104.001 0-156 .5a54.557 54.557 0 0 1 6 6.5c-2.927-1.257-5.26-3.257-7-6 25.825-1.333 51.991-2 78.5-2 26.335 0 52.502.333 78.5 1z"/><path style="opacity:1" fill="#d63023" d="M161.5 3.5c.167 38.335 0 76.668-.5 115a77.657 77.657 0 0 1-5 20c-.71 1.473-1.876 2.14-3.5 2-1-.333-1.667-1-2-2-3.063-4.066-6.729-7.399-11-10-1-.333-1.667-1-2-2-2.731-3.734-6.064-6.734-10-9-1-.333-1.667-1-2-2-3.063-4.066-6.729-7.399-11-10-1-.333-1.667-1-2-2-2.731-3.734-6.064-6.734-10-9-1-.333-1.667-1-2-2-3.063-4.066-6.73-7.4-11-10-1-.333-1.667-1-2-2-3.063-4.066-6.73-7.4-11-10-1-.333-1.667-1-2-2-2.731-3.734-6.064-6.734-10-9-1-.333-1.667-1-2-2-3.063-4.066-6.73-7.4-11-10-1-.333-1.667-1-2-2-3.063-4.066-6.73-7.4-11-10-1-.333-1.667-1-2-2-2.731-3.734-6.064-6.734-10-9-1-.333-1.667-1-2-2-3.063-4.066-6.73-7.4-11-10-1-.333-1.667-1-2-2a54.557 54.557 0 0 0-6-6.5c51.999-.5 103.999-.667 156-.5z"/><path style="opacity:1" fill="#fdfdfd" d="M4.5 4.5c1.74 2.743 4.073 4.743 7 6 .333 1 1 1.667 2 2 3.063 4.066 6.73 7.4 11 10 .333 1 1 1.667 2 2 2.731 3.734 6.064 6.734 10 9 .333 1 1 1.667 2 2 3.063 4.066 6.73 7.4 11 10 .333 1 1 1.667 2 2 3.063 4.066 6.73 7.4 11 10 .333 1 1 1.667 2 2 2.731 3.734 6.064 6.734 10 9 .333 1 1 1.667 2 2 3.063 4.066 6.73 7.4 11 10 .333 1 1 1.667 2 2 3.063 4.066 6.73 7.4 11 10 .333 1 1 1.667 2 2 2.731 3.734 6.064 6.734 10 9 .333 1 1 1.667 2 2 3.063 4.066 6.729 7.399 11 10 .333 1 1 1.667 2 2 2.731 3.734 6.064 6.734 10 9 .333 1 1 1.667 2 2 3.063 4.066 6.729 7.399 11 10 .333 1 1 1.667 2 2 .765 3.55-.069 6.883-2.5 10-19.175 27.665-45.675 39.831-79.5 36.5-28.05-5.272-48.216-20.772-60.5-46.5a124.105 124.105 0 0 1-5-17A1086.45 1086.45 0 0 1 3.5 60c0-18.67.333-37.17 1-55.5z"/><path style="opacity:1" fill="#32231f" d="M13.5 12.5c4.27 2.6 7.937 5.934 11 10-4.27-2.6-7.937-5.934-11-10z"/><path style="opacity:1" fill="#070201" d="M73.5 24.5c6.165 3.155 6.498 6.822 1 11a64.271 64.271 0 0 0 6.5 7l6-6c-.42-2.003-1.253-4.003-2.5-6 1.333-2 3-3.667 5-5 7.148 2.648 12.148 7.481 15 14.5-1.199 2.885-3.199 4.552-6 5a31.857 31.857 0 0 0-5-4.5 64.271 64.271 0 0 0-7 6.5 34.692 34.692 0 0 0 7.5 6.5c-.127 2.641-1.627 4.308-4.5 5a28.535 28.535 0 0 1-8.5-7 55.098 55.098 0 0 1-6.5 6c-2-1.333-3.667-3-5-5a46.001 46.001 0 0 0 6-5.5 64.271 64.271 0 0 0-7-6.5 25.522 25.522 0 0 0-4.5 4c-5.71-2.119-6.71-5.452-3-10 3.598-4.194 7.765-7.528 12.5-10z"/><path style="opacity:1" fill="#31221e" d="M26.5 24.5c3.936 2.266 7.269 5.266 10 9-3.936-2.266-7.269-5.266-10-9z"/><path style="opacity:1" fill="#322420" d="M38.5 35.5c4.27 2.6 7.937 5.934 11 10-4.27-2.6-7.937-5.934-11-10z"/><path style="opacity:1" fill="#2f231f" d="M51.5 47.5c4.27 2.6 7.937 5.934 11 10-4.27-2.6-7.937-5.934-11-10z"/><path style="opacity:1" fill="#2f221f" d="M64.5 59.5c3.936 2.266 7.269 5.266 10 9-3.936-2.266-7.269-5.266-10-9z"/><path style="opacity:1" fill="#332420" d="M76.5 70.5c4.27 2.6 7.937 5.934 11 10-4.27-2.6-7.937-5.934-11-10z"/><path style="opacity:1" fill="#312420" d="M89.5 82.5c4.27 2.6 7.937 5.934 11 10-4.27-2.6-7.937-5.934-11-10z"/><path style="opacity:1" fill="#0b0b0a" d="M99.5 155.5c0-.667.333-1 1-1 .304.65.637 1.317 1 2a54.557 54.557 0 0 0 18 .5c-.544-.717-1.211-1.217-2-1.5-2.243-1.005-2.576-2.505-1-4.5-2.853-1.751-3.52-4.084-2-7-3.606-1.076-4.606-3.243-3-6.5-1.189-.929-2.522-1.262-4-1a139.201 139.201 0 0 0-23-1v11c-.023 2.1.644 3.933 2 5.5a64.988 64.988 0 0 0-6.5 11.5c-1.145-4.294-3.312-7.961-6.5-11l3-4a40.282 40.282 0 0 1-1-12c-6.844-1.319-13.844-1.319-21 0 .124.607.457.94 1 1 2.176 1.213 2.51 2.88 1 5 2.73 1.782 3.397 4.115 2 7a13.033 13.033 0 0 1 3 4 4.94 4.94 0 0 1-1 2.5c1.634.494 3.3.66 5 .5-3.614 13.483-11.614 16.983-24 10.5-3.153-2.805-4.82-6.305-5-10.5 3.388.665 4.388-.335 3-3 .425-1.88 1.425-3.38 3-4.5-1.45-2.289-.95-4.123 1.5-5.5-.16-3.009 1.007-5.175 3.5-6.5-6.724-2.441-8.39-6.774-5-13 4.344-1.476 6.678.024 7 4.5h27c-.184-7.358.15-14.691 1-22a137.282 137.282 0 0 1-6-11.5c1.782-6.729 6.115-9.062 13-7 5.284 4.842 5.284 9.675 0 14.5a115.147 115.147 0 0 0 0 26c8.692.331 17.359-.002 26-1 2.125-4.241 4.958-4.908 8.5-2 1.857 5.548.024 9.214-5.5 11 2.879 1.303 3.545 3.303 2 6 2.918 1.508 3.584 3.675 2 6.5 3.606 1.076 4.606 3.243 3 6.5 1.189.929 2.522 1.262 4 1-3.467 12.4-11.134 16.234-23 11.5-3.727-2.955-5.727-6.788-6-11.5 1.599.268 2.932-.066 4-1z"/><path style="opacity:1" fill="#f3f2f2" d="M77.5 90.5c7.102-.427 9.102 2.407 6 8.5-7.751 1.091-9.751-1.742-6-8.5z"/><path style="opacity:1" fill="#2e221e" d="M102.5 94.5c3.936 2.266 7.269 5.266 10 9-3.936-2.266-7.269-5.266-10-9z"/><path style="opacity:1" fill="#302320" d="M114.5 105.5c4.271 2.601 7.937 5.934 11 10-4.271-2.601-7.937-5.934-11-10z"/><path style="opacity:1" fill="#fdfdfd" d="M-.5 116.5c6.967 41.302 30.967 66.302 72 75h-72v-75z"/><path style="opacity:1" fill="#2f221e" d="M127.5 117.5c3.936 2.266 7.269 5.266 10 9-3.936-2.266-7.269-5.266-10-9z"/><path style="opacity:1" fill="#fdfdfd" d="M165.5 120.5v71h-72c39.216-8.215 63.216-31.882 72-71z"/><path style="opacity:1" fill="#332420" d="M139.5 128.5c4.271 2.601 7.937 5.934 11 10-4.271-2.601-7.937-5.934-11-10z"/><path style="opacity:1" fill="#464240" d="M75.5 136.5c-6.854-.324-13.521.009-20 1-.543-.06-.876-.393-1-1 7.156-1.319 14.156-1.319 21 0z"/><path style="opacity:1" fill="#f7f7f6" d="M49.5 136.5c3.657-.38 4.657.953 3 4 .51 1.588 1.51 2.755 3 3.5-1.52 2.916-.853 5.249 2 7-1.15 1.73-1.15 3.396 0 5-5 .667-10 .667-15 0 2.287-1.427 2.62-3.261 1-5.5 2.989-1.251 3.989-3.251 3-6 2.365-2.088 3.365-4.754 3-8z"/><path style="opacity:1" fill="#fbfbfb" d="M107.5 136.5c1.478-.262 2.811.071 4 1-1.606 3.257-.606 5.424 3 6.5-1.52 2.916-.853 5.249 2 7-1.576 1.995-1.243 3.495 1 4.5-4.515 1.312-9.182 1.312-14 0 1.195-1.467 1.195-2.967 0-4.5 2.901-1.701 3.567-4.035 2-7 3.015-1.877 3.681-4.377 2-7.5z"/><path style="opacity:1" fill="#d0cecd" d="M46.5 138.5c2.26.738 2.427 1.738.5 3a4.932 4.932 0 0 1-.5-3z"/><path style="opacity:1" fill="#cbc9c7" d="M53.5 140.5c.75-1.073 1.75-1.24 3-.5-.852 1.728-1.852 1.895-3 .5z"/><path style="opacity:1" fill="#2a2827" d="M107.5 136.5c1.681 3.123 1.015 5.623-2 7.5 1.567 2.965.901 5.299-2 7 1.195 1.533 1.195 3.033 0 4.5 4.818 1.312 9.485 1.312 14 0 .789.283 1.456.783 2 1.5a54.557 54.557 0 0 1-18-.5 43.836 43.836 0 0 1-1-2c-.667 0-1 .333-1 1-1.073-.751-1.24-1.751-.5-3 2.661-1.242 3.161-3.076 1.5-5.5a12.21 12.21 0 0 1 3-4c-1.72-2.839-1.054-4.839 2-6-6.658-.5-13.325-.666-20-.5.313 3.542-.02 6.875-1 10v-11c7.753-.299 15.42.034 23 1z"/><path style="opacity:1" fill="#cac8c6" d="M104.5 139.5c1.837.139 2.17.806 1 2-.798-.457-1.131-1.124-1-2z"/><path style="opacity:1" fill="#f4f3f3" d="M43.5 145.5c1.837.139 2.17.806 1 2-.797-.457-1.13-1.124-1-2z"/><path style="opacity:1" fill="#e2e1e0" d="M56.5 145.5c.79.283 1.456.783 2 1.5-1.316.528-1.983.028-2-1.5z"/><path style="opacity:1" fill="#9a9794" d="M115.5 145.5c1.837.139 2.17.806 1 2-.798-.457-1.131-1.124-1-2z"/><path style="opacity:1" fill="#eeedec" d="M102.5 145.5c1.837.139 2.17.806 1 2-.798-.457-1.131-1.124-1-2z"/><path style="opacity:1" fill="#f7f6f6" d="M58.5 152.5c.79.283 1.456.783 2 1.5-1.316.528-1.983.028-2-1.5z"/><path style="opacity:1" fill="#edecec" d="M117.5 152.5c1.837.139 2.17.806 1 2-.798-.457-1.131-1.124-1-2z"/><path style="opacity:1" fill="#898684" d="M40.5 153.5c.886-1.276 1.886-1.276 3 0-.925 1.062-1.925 1.062-3 0z"/><path style="opacity:1" fill="#e7e5e5" d="M100.5 154.5c.139-1.837.806-2.17 2-1-.457.798-1.124 1.131-2 1z"/></svg>
